;FLAVOR:Marlin
;TIME:11918
;Filament used: 11.5301m
;Layer height: 0.28
;MINX:87.877
;MINY:88.677
;MINZ:0.28
;MAXX:212.138
;MAXY:212.171
;MAXZ:8.12
;Generated with Cura_SteamEngine 4.13.1
M140 S60
M105
M190 S60
M104 S210
M105
M109 S210
M82 ;absolute extrusion mode
; Ender 3 Custom Start G-code
G92 E0 ; Reset Extruder
G28 ; Home all axes
G1 Z2.0 F3000 ; Move Z Axis up little to prevent scratching of Heat Bed
G1 X0.1 Y20 Z0.3 F5000.0 ; Move to start position
G1 X0.1 Y200.0 Z0.3 F1500.0 E15 ; Draw the first line
G1 X0.4 Y200.0 Z0.3 F5000.0 ; Move to side a little
G1 X0.4 Y20 Z0.3 F1500.0 E30 ; Draw the second line
G92 E0 ; Reset Extruder
G1 Z2.0 F3000 ; Move Z Axis up little to prevent scratching of Heat Bed
G1 X5 Y20 Z0.3 F5000.0 ; Move over to prevent blob squish
G92 E0
G92 E0
G1 F1500 E-6.5
;LAYER_COUNT:29
;LAYER:0
M107
;MESH:StripesTest.stl
G0 F6000 X169.388 Y127.877 Z0.28
;TYPE:WALL-INNER
G1 F1500 E0
G1 F1200 X130.588 Y127.877 E1.80669
G1 X130.588 Y89.077 E3.61338
G1 X169.388 Y89.077 E5.42007
G1 X169.388 Y127.877 E7.22676
G0 F6000 X169.788 Y128.277
;TYPE:WALL-OUTER
G1 F1200 X130.188 Y128.277 E9.0707
G1 X130.188 Y88.677 E10.91465
G1 X169.788 Y88.677 E12.75859
G1 X169.788 Y128.277 E14.60253
G0 F6000 X169.518 Y128.007
G0 X169.278 Y127.487
G0 X168.998 Y127.487
;TYPE:SKIN
G1 F1200 X130.978 Y127.487 E16.3729
G1 X130.978 Y89.467 E18.14327
G1 X168.998 Y89.467 E19.91364
G1 X168.998 Y127.487 E21.68401
G1 F1500 E15.18401
G0 F6000 X169.278 Y127.487
G0 X169.278 Y90.207
G1 F1500 E21.68401
G0 F6000 X168.837 Y90.207
G1 F1200 X168.257 Y89.627 E21.72221
G0 F6000 X167.691 Y89.627
G1 F1200 X168.837 Y90.772 E21.79764
G0 F6000 X168.837 Y91.338
G1 F1200 X167.126 Y89.627 E21.91031
G0 F6000 X166.56 Y89.627
G1 F1200 X168.837 Y91.904 E22.06026
G0 F6000 X168.837 Y92.469
G1 F1200 X165.994 Y89.627 E22.24744
G0 F6000 X165.429 Y89.627
G1 F1200 X168.837 Y93.035 E22.47186
G0 F6000 X168.837 Y93.601
G1 F1200 X164.863 Y89.627 E22.73356
G0 F6000 X164.297 Y89.627
G1 F1200 X168.837 Y94.166 E23.03249
G0 F6000 X168.837 Y94.732
G1 F1200 X163.731 Y89.627 E23.3687
G0 F6000 X163.166 Y89.627
G1 F1200 X168.837 Y95.298 E23.74214
G0 F6000 X168.837 Y95.863
G1 F1200 X162.6 Y89.627 E24.15283
G0 F6000 X162.034 Y89.627
G1 F1200 X168.837 Y96.429 E24.60078
G0 F6000 X168.837 Y96.995
G1 F1200 X161.469 Y89.627 E25.08598
G0 F6000 X160.903 Y89.627
G1 F1200 X168.837 Y97.56 E25.60841
G0 F6000 X168.837 Y98.126
G1 F1200 X160.337 Y89.627 E26.16812
G0 F6000 X159.772 Y89.627
G1 F1200 X168.837 Y98.692 E26.76506
G0 F6000 X168.837 Y99.257
G1 F1200 X159.206 Y89.627 E27.39925
G0 F6000 X158.64 Y89.627
G1 F1200 X168.837 Y99.823 E28.07071
G0 F6000 X168.837 Y100.389
G1 F1200 X158.075 Y89.627 E28.7794
G0 F6000 X157.509 Y89.627
G1 F1200 X168.837 Y100.955 E29.52537
G0 F6000 X168.837 Y101.52
G1 F1200 X156.943 Y89.627 E30.30858
G0 F6000 X156.378 Y89.627
G1 F1200 X168.837 Y102.086 E31.12902
G0 F6000 X168.837 Y102.652
G1 F1200 X155.812 Y89.627 E31.98674
G0 F6000 X155.246 Y89.627
G1 F1200 X168.837 Y103.217 E32.8817
G0 F6000 X168.837 Y103.783
G1 F1200 X154.681 Y89.627 E33.8139
G0 F6000 X154.115 Y89.627
G1 F1200 X168.837 Y104.349 E34.78336
G0 F6000 X168.837 Y104.914
G1 F1200 X153.549 Y89.627 E35.79007
G0 F6000 X152.983 Y89.627
G1 F1200 X168.837 Y105.48 E36.83405
G0 F6000 X168.837 Y106.046
G1 F1200 X152.418 Y89.627 E37.91527
G0 F6000 X151.852 Y89.627
G1 F1200 X168.837 Y106.611 E39.03373
G0 F6000 X168.837 Y107.177
G1 F1200 X151.286 Y89.627 E40.18946
G0 F6000 X150.721 Y89.627
G1 F1200 X168.837 Y107.743 E41.38243
G0 F6000 X168.837 Y108.308
G1 F1200 X150.155 Y89.627 E42.61264
G0 F6000 X149.589 Y89.627
G1 F1200 X168.837 Y108.874 E43.88012
G0 F6000 X168.837 Y109.44
G1 F1200 X149.024 Y89.627 E45.18484
G0 F6000 X148.458 Y89.627
G1 F1200 X168.837 Y110.006 E46.52683
G0 F6000 X168.837 Y110.571
G1 F1200 X147.892 Y89.627 E47.90606
G0 F6000 X147.327 Y89.627
G1 F1200 X168.837 Y111.137 E49.32253
G0 F6000 X168.837 Y111.703
G1 F1200 X146.761 Y89.627 E50.77628
G0 F6000 X146.195 Y89.627
G1 F1200 X168.837 Y112.268 E52.26726
G0 F6000 X168.837 Y112.834
G1 F1200 X145.63 Y89.627 E53.79548
G0 F6000 X145.064 Y89.627
G1 F1200 X168.837 Y113.4 E55.36097
G0 F6000 X168.837 Y113.965
G1 F1200 X144.498 Y89.627 E56.9637
G0 F6000 X143.932 Y89.627
G1 F1200 X168.837 Y114.531 E58.60371
G0 F6000 X168.837 Y115.097
G1 F1200 X143.367 Y89.627 E60.28095
G0 F6000 X142.801 Y89.627
G1 F1200 X168.837 Y115.662 E61.99543
G0 F6000 X168.837 Y116.228
G1 F1200 X142.235 Y89.627 E63.74718
G0 F6000 X141.67 Y89.627
G1 F1200 X168.837 Y116.794 E65.53618
G0 F6000 X168.837 Y117.359
G1 F1200 X141.104 Y89.627 E67.36241
G0 F6000 X140.538 Y89.627
G1 F1200 X168.837 Y117.925 E69.22592
G0 F6000 X168.837 Y118.491
G1 F1200 X139.973 Y89.627 E71.12666
G0 F6000 X139.407 Y89.627
G1 F1200 X168.837 Y119.056 E73.06464
G0 F6000 X168.837 Y119.622
G1 F1200 X138.841 Y89.627 E75.0399
G0 F6000 X138.276 Y89.627
G1 F1200 X168.837 Y120.188 E77.05239
G0 F6000 X168.837 Y120.754
G1 F1200 X137.71 Y89.627 E79.10216
G0 F6000 X137.144 Y89.627
G1 F1200 X168.837 Y121.319 E81.18916
G0 F6000 X168.837 Y121.885
G1 F1200 X136.579 Y89.627 E83.31341
G0 F6000 X136.013 Y89.627
G1 F1200 X168.837 Y122.451 E85.47492
G0 F6000 X168.837 Y123.016
G1 F1200 X135.447 Y89.627 E87.67368
G0 F6000 X134.882 Y89.627
G1 F1200 X168.837 Y123.582 E89.90967
G0 F6000 X168.837 Y124.148
G1 F1200 X134.316 Y89.627 E92.18294
G0 F6000 X133.75 Y89.627
G1 F1200 X168.837 Y124.713 E94.49345
G0 F6000 X168.837 Y125.279
G1 F1200 X133.184 Y89.627 E96.84122
G0 F6000 X132.619 Y89.627
G1 F1200 X168.837 Y125.845 E99.22624
G0 F6000 X168.837 Y126.41
G1 F1200 X132.053 Y89.627 E101.6485
G0 F6000 X131.487 Y89.627
G1 F1200 X168.837 Y126.976 E104.10803
G0 F6000 X168.622 Y127.327
G1 F1200 X131.137 Y89.842 E106.57648
G0 F6000 X131.137 Y90.407
G1 F1200 X168.056 Y127.327 E109.00769
G0 F6000 X167.49 Y127.327
G1 F1200 X131.137 Y90.973 E111.40163
G0 F6000 X131.137 Y91.539
G1 F1200 X166.925 Y127.327 E113.75833
G0 F6000 X166.359 Y127.327
G1 F1200 X131.137 Y92.104 E116.07779
G0 F6000 X131.137 Y92.67
G1 F1200 X165.793 Y127.327 E118.35998
G0 F6000 X165.228 Y127.327
G1 F1200 X131.137 Y93.236 E120.60493
G0 F6000 X131.137 Y93.801
G1 F1200 X164.662 Y127.327 E122.81264
G0 F6000 X164.096 Y127.327
G1 F1200 X131.137 Y94.367 E124.98308
G0 F6000 X131.137 Y94.933
G1 F1200 X163.531 Y127.327 E127.11628
G0 F6000 X162.965 Y127.327
G1 F1200 X131.137 Y95.499 E129.21221
G0 F6000 X131.137 Y96.064
G1 F1200 X162.399 Y127.327 E131.2709
G0 F6000 X161.834 Y127.327
G1 F1200 X131.137 Y96.63 E133.29235
G0 F6000 X131.137 Y97.196
G1 F1200 X161.268 Y127.327 E135.27653
G0 F6000 X160.702 Y127.327
G1 F1200 X131.137 Y97.761 E137.22347
G0 F6000 X131.137 Y98.327
G1 F1200 X160.137 Y127.327 E139.13317
G0 F6000 X159.571 Y127.327
G1 F1200 X131.137 Y98.893 E141.00559
G0 F6000 X131.137 Y99.458
G1 F1200 X159.005 Y127.327 E142.84078
G0 F6000 X158.44 Y127.327
G1 F1200 X131.137 Y100.024 E144.63873
G0 F6000 X131.137 Y100.59
G1 F1200 X157.874 Y127.327 E146.39941
G0 F6000 X157.308 Y127.327
G1 F1200 X131.137 Y101.155 E148.12285
G0 F6000 X131.137 Y101.721
G1 F1200 X156.742 Y127.327 E149.80901
G0 F6000 X156.177 Y127.327
G1 F1200 X131.137 Y102.287 E151.45794
G0 F6000 X131.137 Y102.852
G1 F1200 X155.611 Y127.327 E153.06963
G0 F6000 X155.045 Y127.327
G1 F1200 X131.137 Y103.418 E154.64404
G0 F6000 X131.137 Y103.984
G1 F1200 X154.48 Y127.327 E156.18122
G0 F6000 X153.914 Y127.327
G1 F1200 X131.137 Y104.549 E157.68116
G0 F6000 X131.137 Y105.115
G1 F1200 X153.348 Y127.327 E159.14382
G0 F6000 X152.783 Y127.327
G1 F1200 X131.137 Y105.681 E160.56925
G0 F6000 X131.137 Y106.247
G1 F1200 X152.217 Y127.327 E161.9574
G0 F6000 X151.651 Y127.327
G1 F1200 X131.137 Y106.812 E163.30832
G0 F6000 X131.137 Y107.378
G1 F1200 X151.086 Y127.327 E164.62199
G0 F6000 X150.52 Y127.327
G1 F1200 X131.137 Y107.944 E165.8984
G0 F6000 X131.137 Y108.509
G1 F1200 X149.954 Y127.327 E167.13756
G0 F6000 X149.389 Y127.327
G1 F1200 X131.137 Y109.075 E168.33949
G0 F6000 X131.137 Y109.641
G1 F1200 X148.823 Y127.327 E169.50414
G0 F6000 X148.257 Y127.327
G1 F1200 X131.137 Y110.206 E170.63155
G0 F6000 X131.137 Y110.772
G1 F1200 X147.691 Y127.327 E171.72169
G0 F6000 X147.126 Y127.327
G1 F1200 X131.137 Y111.338 E172.7746
G0 F6000 X131.137 Y111.903
G1 F1200 X146.56 Y127.327 E173.79026
G0 F6000 X145.994 Y127.327
G1 F1200 X131.137 Y112.469 E174.76865
G0 F6000 X131.137 Y113.035
G1 F1200 X145.429 Y127.327 E175.70981
G0 F6000 X144.863 Y127.327
G1 F1200 X131.137 Y113.6 E176.61372
G0 F6000 X131.137 Y114.166
G1 F1200 X144.297 Y127.327 E177.48036
G0 F6000 X143.732 Y127.327
G1 F1200 X131.137 Y114.732 E178.30976
G0 F6000 X131.137 Y115.298
G1 F1200 X143.166 Y127.327 E179.10189
G0 F6000 X142.6 Y127.327
G1 F1200 X131.137 Y115.863 E179.85678
G0 F6000 X131.137 Y116.429
G1 F1200 X142.035 Y127.327 E180.57444
G0 F6000 X141.469 Y127.327
G1 F1200 X131.137 Y116.995 E181.25482
G0 F6000 X131.137 Y117.56
G1 F1200 X140.903 Y127.327 E181.89796
G0 F6000 X140.338 Y127.327
G1 F1200 X131.137 Y118.126 E182.50386
G0 F6000 X131.137 Y118.692
G1 F1200 X139.772 Y127.327 E183.07249
G0 F6000 X139.206 Y127.327
G1 F1200 X131.137 Y119.257 E183.60388
G0 F6000 X131.137 Y119.823
G1 F1200 X138.641 Y127.327 E184.09803
G0 F6000 X138.075 Y127.327
G1 F1200 X131.137 Y120.389 E184.55491
G0 F6000 X131.137 Y120.954
G1 F1200 X137.509 Y127.327 E184.97455
G0 F6000 X136.943 Y127.327
G1 F1200 X131.137 Y121.52 E185.35692
G0 F6000 X131.137 Y122.086
G1 F1200 X136.378 Y127.327 E185.70205
G0 F6000 X135.812 Y127.327
G1 F1200 X131.137 Y122.651 E186.00993
G0 F6000 X131.137 Y123.217
G1 F1200 X135.246 Y127.327 E186.28055
G0 F6000 X134.681 Y127.327
G1 F1200 X131.137 Y123.783 E186.51393
G0 F6000 X131.137 Y124.348
G1 F1200 X134.115 Y127.327 E186.71007
G0 F6000 X133.549 Y127.327
G1 F1200 X131.137 Y124.914 E186.86894
G0 F6000 X131.137 Y125.48
G1 F1200 X132.984 Y127.327 E186.99057
G0 F6000 X132.418 Y127.327
G1 F1200 X131.137 Y126.046 E187.07492
G0 F6000 X131.137 Y126.611
G1 F1200 X131.852 Y127.327 E187.12204
G0 F6000 X131.287 Y127.327
G1 F1200 X131.137 Y127.177 E187.13192
G0 F6000 X130.788 Y127.177
G1 F1500 E180.63192
;MESH:SkullsTest.stl
G0 F6000 X130.698 Y127.177
G0 X130.77 Y127.695
G0 X169.399 Y128.057
G0 X169.189 Y130.809
G0 X169.399 Y169.399
;TYPE:WALL-INNER
G1 F1500 E187.13192
G1 F1200 X130.599 Y169.399 E188.93861
G1 X130.599 Y130.599 E190.7453
G1 X169.399 Y130.599 E192.55199
G1 X169.399 Y169.399 E194.35868
G0 F6000 X169.799 Y169.799
;TYPE:WALL-OUTER
G1 F1200 X130.199 Y169.799 E196.20262
G1 X130.199 Y130.199 E198.04656
G1 X169.799 Y130.199 E199.8905
G1 X169.799 Y169.799 E201.73445
G0 F6000 X169.529 Y169.529
G0 X169.289 Y169.009
G0 X169.009 Y169.009
;TYPE:SKIN
G1 F1200 X130.989 Y169.009 E203.50482
G1 X130.989 Y130.989 E205.27519
G1 X169.009 Y130.989 E207.04556
G1 X169.009 Y169.009 E208.81593
G1 F1500 E202.31593
G0 F6000 X169.289 Y169.009
G0 X169.289 Y131.513
G1 F1500 E208.81593
G0 F6000 X168.848 Y131.513
G1 F1200 X168.484 Y131.149 E208.8399
G0 F6000 X167.918 Y131.149
G1 F1200 X168.848 Y132.079 E208.90114
G0 F6000 X168.848 Y132.644
G1 F1200 X167.353 Y131.149 E208.99959
G0 F6000 X166.787 Y131.149
G1 F1200 X168.848 Y133.21 E209.13531
G0 F6000 X168.848 Y133.776
G1 F1200 X166.221 Y131.149 E209.3083
G0 F6000 X165.656 Y131.149
G1 F1200 X168.848 Y134.341 E209.5185
G0 F6000 X168.848 Y134.907
G1 F1200 X165.09 Y131.149 E209.76597
G0 F6000 X164.524 Y131.149
G1 F1200 X168.848 Y135.473 E210.05071
G0 F6000 X168.848 Y136.038
G1 F1200 X163.958 Y131.149 E210.3727
G0 F6000 X163.393 Y131.149
G1 F1200 X168.848 Y136.604 E210.73192
G0 F6000 X168.848 Y137.17
G1 F1200 X162.827 Y131.149 E211.12841
G0 F6000 X162.261 Y131.149
G1 F1200 X168.848 Y137.735 E211.56214
G0 F6000 X168.848 Y138.301
G1 F1200 X161.696 Y131.149 E212.03311
G0 F6000 X161.13 Y131.149
G1 F1200 X168.848 Y138.867 E212.54136
G0 F6000 X168.848 Y139.432
G1 F1200 X160.564 Y131.149 E213.08684
G0 F6000 X159.999 Y131.149
G1 F1200 X168.848 Y139.998 E213.66956
G0 F6000 X168.848 Y140.564
G1 F1200 X159.433 Y131.149 E214.28955
G0 F6000 X158.867 Y131.149
G1 F1200 X168.848 Y141.13 E214.94682
G0 F6000 X168.848 Y141.695
G1 F1200 X158.302 Y131.149 E215.64129
G0 F6000 X157.736 Y131.149
G1 F1200 X168.848 Y142.261 E216.37304
G0 F6000 X168.848 Y142.827
G1 F1200 X157.17 Y131.149 E217.14205
G0 F6000 X156.605 Y131.149
G1 F1200 X168.848 Y143.392 E217.94828
G0 F6000 X168.848 Y143.958
G1 F1200 X156.039 Y131.149 E218.79177
G0 F6000 X155.473 Y131.149
G1 F1200 X168.848 Y144.524 E219.67254
G0 F6000 X168.848 Y145.089
G1 F1200 X154.908 Y131.149 E220.59051
G0 F6000 X154.342 Y131.149
G1 F1200 X168.848 Y145.655 E221.54575
G0 F6000 X168.848 Y146.221
G1 F1200 X153.776 Y131.149 E222.53827
G0 F6000 X153.21 Y131.149
G1 F1200 X168.848 Y146.786 E223.56803
G0 F6000 X168.848 Y147.352
G1 F1200 X152.645 Y131.149 E224.63502
G0 F6000 X152.079 Y131.149
G1 F1200 X168.848 Y147.918 E225.73929
G0 F6000 X168.848 Y148.483
G1 F1200 X151.513 Y131.149 E226.8808
G0 F6000 X150.948 Y131.149
G1 F1200 X168.848 Y149.049 E228.05954
G0 F6000 X168.848 Y149.615
G1 F1200 X150.382 Y131.149 E229.27556
G0 F6000 X149.816 Y131.149
G1 F1200 X168.848 Y150.18 E230.52882
G0 F6000 X168.848 Y150.746
G1 F1200 X149.251 Y131.149 E231.81931
G0 F6000 X148.685 Y131.149
G1 F1200 X168.848 Y151.312 E233.14708
G0 F6000 X168.848 Y151.878
G1 F1200 X148.119 Y131.149 E234.51212
G0 F6000 X147.554 Y131.149
G1 F1200 X168.848 Y152.443 E235.91437
G0 F6000 X168.848 Y153.009
G1 F1200 X146.988 Y131.149 E237.35388
G0 F6000 X146.422 Y131.149
G1 F1200 X168.848 Y153.575 E238.83068
G0 F6000 X168.848 Y154.14
G1 F1200 X145.857 Y131.149 E240.34467
G0 F6000 X145.291 Y131.149
G1 F1200 X168.848 Y154.706 E241.89594
G0 F6000 X168.848 Y155.272
G1 F1200 X144.725 Y131.149 E243.48448
G0 F6000 X144.159 Y131.149
G1 F1200 X168.848 Y155.837 E245.11026
G0 F6000 X168.848 Y156.403
G1 F1200 X143.594 Y131.149 E246.77328
G0 F6000 X143.028 Y131.149
G1 F1200 X168.848 Y156.969 E248.47357
G0 F6000 X168.848 Y157.534
G1 F1200 X142.462 Y131.149 E250.2111
G0 F6000 X141.897 Y131.149
G1 F1200 X168.848 Y158.1 E251.98587
G0 F6000 X168.848 Y158.666
G1 F1200 X141.331 Y131.149 E253.79791
G0 F6000 X140.765 Y131.149
G1 F1200 X168.848 Y159.231 E255.64719
G0 F6000 X168.848 Y159.797
G1 F1200 X140.2 Y131.149 E257.53371
G0 F6000 X139.634 Y131.149
G1 F1200 X168.848 Y160.363 E259.4575
G0 F6000 X168.848 Y160.929
G1 F1200 X139.068 Y131.149 E261.41857
G0 F6000 X138.503 Y131.149
G1 F1200 X168.848 Y161.494 E263.41684
G0 F6000 X168.848 Y162.06
G1 F1200 X137.937 Y131.149 E265.45238
G0 F6000 X137.371 Y131.149
G1 F1200 X168.848 Y162.626 E267.52519
G0 F6000 X168.848 Y163.191
G1 F1200 X136.806 Y131.149 E269.63522
G0 F6000 X136.24 Y131.149
G1 F1200 X168.848 Y163.757 E271.78251
G0 F6000 X168.848 Y164.323
G1 F1200 X135.674 Y131.149 E273.96707
G0 F6000 X135.109 Y131.149
G1 F1200 X168.848 Y164.888 E276.18884
G0 F6000 X168.848 Y165.454
G1 F1200 X134.543 Y131.149 E278.44789
G0 F6000 X133.977 Y131.149
G1 F1200 X168.848 Y166.02 E280.7442
G0 F6000 X168.848 Y166.585
G1 F1200 X133.411 Y131.149 E283.07775
G0 F6000 X132.846 Y131.149
G1 F1200 X168.848 Y167.151 E285.44855
G0 F6000 X168.848 Y167.717
G1 F1200 X132.28 Y131.149 E287.85661
G0 F6000 X131.714 Y131.149
G1 F1200 X168.848 Y168.282 E290.30192
G0 F6000 X168.848 Y168.848
G1 F1200 X131.148 Y131.148 E292.78453
G0 F6000 X131.148 Y131.714
G1 F1200 X168.282 Y168.847 E295.22983
G0 F6000 X167.716 Y168.847
G1 F1200 X131.148 Y132.279 E297.6379
G0 F6000 X131.148 Y132.845
G1 F1200 X167.15 Y168.847 E300.00869
G0 F6000 X166.585 Y168.847
G1 F1200 X131.148 Y133.411 E302.34224
G0 F6000 X131.148 Y133.976
G1 F1200 X166.019 Y168.847 E304.63856
G0 F6000 X165.453 Y168.847
G1 F1200 X131.148 Y134.542 E306.8976
G0 F6000 X131.148 Y135.108
G1 F1200 X164.888 Y168.847 E309.11941
G0 F6000 X164.322 Y168.847
G1 F1200 X131.148 Y135.673 E311.30397
G0 F6000 X131.148 Y136.239
G1 F1200 X163.756 Y168.847 E313.45126
G0 F6000 X163.191 Y168.847
G1 F1200 X131.148 Y136.805 E315.56132
G0 F6000 X131.148 Y137.371
G1 F1200 X162.625 Y168.847 E317.6341
G0 F6000 X162.059 Y168.847
G1 F1200 X131.148 Y137.936 E319.66964
G0 F6000 X131.148 Y138.502
G1 F1200 X161.493 Y168.847 E321.66791
G0 F6000 X160.928 Y168.847
